packages/assets/static/images/icons/hospital.svg

<svg width="24" height="24" viewBox="0 0 24 24" xmlns="http://www.w3.org/2000/svg">
<path d="M22.125 19.5H21.375V12C21.375 11.6022 21.217 11.2206 20.9357 10.9393C20.6544 10.658 20.2728 10.5 19.875 10.5H14.625V4.5C14.625 4.10218 14.467 3.72064 14.1857 3.43934C13.9044 3.15804 13.5228 3 13.125 3H4.125C3.72718 3 3.34564 3.15804 3.06434 3.43934C2.78304 3.72064 2.625 4.10218 2.625 4.5V19.5H1.875C1.67609 19.5 1.48532 19.579 1.34467 19.7197C1.20402 19.8603 1.125 20.0511 1.125 20.25C1.125 20.4489 1.20402 20.6397 1.34467 20.7803C1.48532 20.921 1.67609 21 1.875 21H22.125C22.3239 21 22.5147 20.921 22.6553 20.7803C22.796 20.6397 22.875 20.4489 22.875 20.25C22.875 20.0511 22.796 19.8603 22.6553 19.7197C22.5147 19.579 22.3239 19.5 22.125 19.5ZM19.875 12V19.5H14.625V12H19.875ZM4.125 4.5H13.125V19.5H11.625V15C11.625 14.8011 11.546 14.6103 11.4053 14.4697C11.2647 14.329 11.0739 14.25 10.875 14.25H6.375C6.17609 14.25 5.98532 14.329 5.84467 14.4697C5.70402 14.6103 5.625 14.8011 5.625 15V19.5H4.125V4.5ZM10.125 19.5H7.125V15.75H10.125V19.5ZM5.625 9C5.625 8.80109 5.70402 8.61032 5.84467 8.46967C5.98532 8.32902 6.17609 8.25 6.375 8.25H7.875V6.75C7.875 6.55109 7.95402 6.36032 8.09467 6.21967C8.23532 6.07902 8.42609 6 8.625 6C8.82391 6 9.01468 6.07902 9.15533 6.21967C9.29598 6.36032 9.375 6.55109 9.375 6.75V8.25H10.875C11.0739 8.25 11.2647 8.32902 11.4053 8.46967C11.546 8.61032 11.625 8.80109 11.625 9C11.625 9.19891 11.546 9.38968 11.4053 9.53033C11.2647 9.67098 11.0739 9.75 10.875 9.75H9.375V11.25C9.375 11.4489 9.29598 11.6397 9.15533 11.7803C9.01468 11.921 8.82391 12 8.625 12C8.42609 12 8.23532 11.921 8.09467 11.7803C7.95402 11.6397 7.875 11.4489 7.875 11.25V9.75H6.375C6.17609 9.75 5.98532 9.67098 5.84467 9.53033C5.70402 9.38968 5.625 9.19891 5.625 9Z"/>
</svg>

<svg viewBox="0 0 24 24" xmlns="http://www.w3.org/2000/svg" aria-hidden="true" fill="currentColor"><path d="M22.125 19.5h-.75V12a1.5 1.5 0 0 0-1.5-1.5h-5.25v-6a1.5 1.5 0 0 0-1.5-1.5h-9a1.5 1.5 0 0 0-1.5 1.5v15h-.75a.75.75 0 1 0 0 1.5h20.25a.75.75 0 1 0 0-1.5m-2.25-7.5v7.5h-5.25V12zM4.125 4.5h9v15h-1.5V15a.75.75 0 0 0-.75-.75h-4.5a.75.75 0 0 0-.75.75v4.5h-1.5zm6 15h-3v-3.75h3zM5.625 9a.75.75 0 0 1 .75-.75h1.5v-1.5a.75.75 0 0 1 1.5 0v1.5h1.5a.75.75 0 1 1 0 1.5h-1.5v1.5a.75.75 0 1 1-1.5 0v-1.5h-1.5a.75.75 0 0 1-.75-.75"/></svg>
